src/assets/images/copy-icon.svg

<svg width="30" height="30" viewBox="0 0 30 30" fill="none" xmlns="http://www.w3.org/2000/svg">
<path d="M14.1785 6.32923C15.1815 6.37908 16.1817 6.43169 17.1847 6.476C17.3565 6.48431 17.6363 6.52031 17.6806 6.44C18.6005 4.80339 18.9884 6.49815 19.573 6.76677C19.7725 6.85815 19.9554 7.25969 19.5564 7.40923C18.6864 7.73599 19.0521 8.50861 19.1629 8.92953C20.1604 12.7095 19.6201 16.6252 20.2297 20.4301C20.4707 21.9421 20.4956 23.4513 20.4873 24.9689C20.4873 25.4147 20.4596 25.8716 19.8362 25.7166C17.7804 25.207 15.8769 26.1209 13.9042 26.3479C11.6849 26.6055 9.4905 27.079 7.25179 27.2092C5.5783 27.3061 4.97152 26.6609 4.9632 24.9633C4.94104 20.3664 4.89394 15.7723 4.78311 11.1781C4.76094 10.2809 4.46448 9.37261 4.1791 8.50861C3.88818 7.62523 4.07936 7.17938 5.02416 7.11846C8.07468 6.91631 11.0975 6.33477 14.173 6.32923H14.1785ZM14.2034 7.9963C12.4607 8.09876 10.222 8.25384 7.98048 8.35353C7.31274 8.38399 6.92208 8.57507 6.98303 9.31168C7.14096 11.1421 6.91376 12.9754 7.23793 14.8169C7.76159 17.7966 8.0913 20.815 7.79761 23.8529C7.73112 24.5313 8.03866 24.6393 8.58171 24.6089C11.5519 24.4455 14.5276 24.3929 17.4895 24.0467C18.3899 23.9415 18.5146 23.5538 18.4149 22.6732C17.9605 18.6052 17.5753 14.5317 17.2456 10.4526C17.0461 8.00184 17.1099 7.9963 14.2007 7.99907L14.2034 7.9963Z" fill="#F3F3F3"/>
<path d="M25.7073 14.091C25.7073 16.3036 25.6297 18.5218 25.7461 20.7316C25.7959 21.6814 25.0396 22.3073 25.0977 23.2156C25.1171 23.5451 24.7043 23.5396 24.4355 23.4814C23.9396 23.3734 23.8205 22.9691 23.8149 22.5344C23.8011 21.1525 23.7595 19.7651 23.8149 18.3861C23.9424 15.2928 23.5683 12.2439 23.0945 9.20332C22.8895 7.88241 23.0419 6.54764 22.762 5.22118C22.5764 4.35165 22.2522 4.09134 21.4127 4.09411C17.8441 4.11349 14.2782 4.09411 10.765 4.86118C10.1804 4.98857 9.67335 4.79749 9.29099 4.3378C9.14692 4.16611 9.1109 3.72026 9.21896 3.74519C10.3771 4.03042 10.6459 2.5655 11.6599 2.55996C14.8601 2.54334 18.0685 2.34396 21.2631 2.47965C24.261 2.60704 25.4912 4.03872 25.6796 7.17348C25.8181 9.47194 25.7073 11.7842 25.7073 14.091Z" fill="#F3F3F3"/>
</svg>

<svg width="30" height="30" viewBox="0 0 30 30" fill="none" xmlns="http://www.w3.org/2000/svg"><path d="M14.178 6.33c1.003.05 2.004.102 3.007.146.172.008.451.044.496-.036.92-1.637 1.307.058 1.892.327.2.091.382.493-.017.642-.87.327-.504 1.1-.393 1.52.997 3.78.457 7.696 1.067 11.501.24 1.512.266 3.021.257 4.539 0 .446-.027.903-.65.748-2.057-.51-3.96.404-5.933.63-2.22.258-4.413.732-6.652.862-1.674.097-2.28-.548-2.289-2.246-.022-4.597-.07-9.19-.18-13.785-.022-.897-.319-1.805-.604-2.67-.29-.883-.1-1.329.845-1.39 3.05-.202 6.074-.783 9.149-.789h.005Zm.025 1.666c-1.742.103-3.981.258-6.223.358-.667.03-1.058.221-.997.958.158 1.83-.07 3.663.255 5.505.524 2.98.853 5.998.56 9.036-.067.678.24.786.784.756 2.97-.164 5.946-.216 8.907-.562.9-.105 1.026-.493.926-1.374-.454-4.068-.84-8.141-1.17-12.22-.199-2.451-.135-2.457-3.044-2.454l.002-.003Z" fill="#F3F3F3"/><path d="M25.707 14.091c0 2.213-.077 4.43.04 6.64.049.95-.707 1.576-.65 2.485.02.33-.393.324-.662.265-.495-.108-.614-.512-.62-.947-.014-1.381-.056-2.769 0-4.148.127-3.093-.247-6.142-.72-9.183-.205-1.32-.053-2.655-.333-3.982-.186-.87-.51-1.13-1.35-1.127-3.568.02-7.134 0-10.647.767-.585.128-1.092-.064-1.474-.523-.144-.172-.18-.618-.072-.593 1.158.285 1.427-1.18 2.44-1.185 3.201-.017 6.41-.216 9.604-.08 2.998.127 4.228 1.559 4.417 4.693.138 2.299.027 4.611.027 6.918Z" fill="#F3F3F3"/></svg>
